!!!COM: Johann Ludwig Krebs
!!!OTL: Trio in Es
!!!system-decoration: (s1,s2,s3)
**kern	**kern	**kern	**kern	**kern	**kern	**kern	**kern	**kern
*part3	*part3	*part3	*part2	*part2	*part2	*part1	*part1	*part1
*staff9	*staff8	*staff7	*staff6	*staff5	*staff4	*staff3	*staff2	*staff1
*I"pedal	*	*	*I"lower	*	*	*I"upper	*	*
*clefF4	*clefG2	*clefG2
*k[b-e-a-]	*k[b-e-a-]	*k[b-e-a-]
*M4/4	*M4/4	*M4/4
8E-yL	16e-yL	16gL
.	16f	16a-y
8EE-yJ	16e-y	16g
.	16f	16a-yJ
8r	8g	16b-yL
.	.	16e-yJ
8E-y	8gJ	4ee-y
8B-yL	16fL	.
.	16g	.
8BB-yJ	16f	16ddL
.	16g	16ee-yJ
8r	8a-y	16ffL
.	.	16dd
8BB-y	[8ddJ	16b-y
.	.	16a-yJ
=2	=2	=2
8E-yL	8ddL]	8a-yLT
8EE-yJ	8ee-yJ	8gJ
4r	4r	4r
8E-yL	16e-yL	16gL
.	16f	16a-y
8EE-yJ	16e-y	16g
.	16f	16a-yJ
8r	8g	16b-yL
.	.	16e-y
8E-y	8gJ	[8ee-yJ
=3	=3	=3
8B-yL	16fL	8ee-yL]
.	16g	.
8BB-yJ	16f	16dd
.	16g	16ee-yJ
8r	8a-yJ	16ffL
.	.	16dd
8BB-y	4dd	16b-y
.	.	16a-yJ
8E-yL	.	8a-yLT
8EE-yJ	8ee-y	8gJ
8r	16r	[4b-y
.	16ee-yL	.
8G	16b-y	.
.	16dd-J	.
!!LO:LB
=4	=4	=4
8A-yL	[4cc	16b-yL]
.	.	32cc
.	.	32b-yJ
8G	.	32a-yL
.	.	32b-y
.	.	32g
.	.	32gJ
.	.	8qg
8F	16ccL]	[4a-y
.	32dd	.
.	32ee-yJ	.
8E-yJ	32ddL	.
.	32ee-y	.
.	16ccJ	.
8DL	[4b-y	16a-yL]
.	.	32b-y
.	.	32a-yJ
8BB-y	.	32gL
.	.	32a-y
.	.	16fJ
8E-y	16b-yL]	16gL
.	16gg	16b-y
8A-yJ	16ff	16a-y
.	16ee-yJ	16gJ
=5	=5	=5
8B-yL	8ee-yLT	8gLT
8BB-yJ	8ddJ	8fJ
16r	[4cc#	[4b-y
16E-yL	.	.
16G	.	.
16E-yJ	.	.
8A-yL	8cc#yL]	8b-yL]
8AA-yJ	16ccn	16a-y
.	16dd-	16b-y
8r	8ee-y	8cc
8E-y	[8d-J	[8gJ
!!LO:LB
=6	=6	=6
4AA-y	8d-yL]	8gL]
.	8cJ	8a-yJ
16r	[4cc	[4ee-y
16FL	.	.
16An	.	.
16FJ	.	.
8B-yL	8ccL]	8ee-yL]
8BB-yJ	16b-y	16dd
.	16cc	16ee-y
8r	8dd	8ff
8F	[8ee-yJ	[8anJ
=7	=7	=7
4BB-y	8ee-yL]	8aL]
.	8ddJ	8b-yJ
16r	[4ee-y	[4gg
16E-yL	.	.
16G	.	.
16E-yJ	.	.
8B-yL	8ee-yL]	8ggL]
8BB-yJ	16dd	16ff
.	16ffJ	16aa-yJ
16r	[4ee-y	[4gg
16E-yL	.	.
16G	.	.
16E-yJ	.	.
=8	=8	=8
8B-yL	8ee-yL]	8ggL]
8BB-yJ	16dd	16ff
.	16ffJ	16aa-yJ
16r	[4ee-y	[4gg
16E-yL	.	.
16G	.	.
16E-yJ	.	.
8B-yL	8ee-yL]	8ggL]
8BB-yJ	16dd	16ff
.	16ee-y	16gg
8r	8ff	8aa-y
8BB-y	[8a-yJ	[8ddJ
!!LO:LB
=9	=9	=9
8E-yL	8a-yL]]	8ddL]
8EE-yJ	8gJ	8ee-yJ
8r	8r	[4b-y
8G	8dd-	.
8A-yL	[4cc	16b-yL]
.	.	16cc
8AA-yJ	.	16a-y
.	.	16gJ
8r	16ccL]	[4a-y
.	16ff	.
8F	16ddn	.
.	16ccJ	.
=10	=10	=10
8GL	[4b-y	16a-yL
.	.	16b-y
8GGJ	.	16g
.	.	16fJ
8r	16b-yL]	[4g
.	16ee-y	.
8E-y	16cc	.
.	16b-yJ	.
8FL	[4a-y	16gL]
.	.	16a-y
8FFJ	.	16f
.	.	16e-yJ
8r	16a-yL]	4f
.	16dd	.
8D	16b-y	.
.	16a-yJ	.
=11	=11	=11
8E-yL	16gL	16e-yL
.	16b-y	16g
8A-y	16a-y	16f
.	16g	16e-y
8B-y	8gT	8e-yT
8BB-yJ	8fJ	8dJ
8B-yL	4r	16r
.	.	16fL
8A-y	.	16g
.	.	16a-yJ
8G	16fL	[4b-y
.	16d	.
8GGJ	16en	.
.	16fJ	.
=12	=12	=12
8CL	[4en	16b-yL]
.	.	16dd-
8G	.	16cc
.	.	16b-yJ
8En	16eL]	16ggL
.	16g	16b-y
8CJ	16f	16a-y
.	16e-J	16gJ
8FL	[4f	16a-yL
.	.	16cc
8FF	.	16b-y
.	.	16a-yJ
8D	16fL]	16ffL
.	16f	16a-y
8BB-yJ	16e-y	16g
.	16dJ	16fJ
=13	=13	=13
8E-yL	[4e-y	16gL
.	.	16b-y
8B-y	.	16a-y
.	.	16gJ
8G	16e-yL]	16ee-yL
.	16g	16b-y
8A-yJ	16f	16a-y
.	16e-yJ	16gJ
8B-yL	8e-yLT	8gLT
8BB-yJ	8dJ	8fJ
16r	4f	[4a-y
16BB-yL	.	.
16D	.	.
16BB-yJ	.	.
!!LO:LB
=14	=14	=14
8E-yL	8fL	8a-yL]
8EE-yJ	16e-y	16g
.	16fJ	16a-yJ
8r	16gL	16b-yL
.	16a-yJ	16ccJ
8E-y	4b-y	4dd-
8A-yL	.	.
8AA-yJ	16a-yL	16ccL
.	16b-yJ	16ddnJ
16r	[4cc	[4ee-y
16FL	.	.
16An	.	.
16FJ	.	.
=15	=15	=15
8B-yL	8ccL]	8ee-yL]
8BB-yJ	16b-y	16dd
.	16ccJ	16ee-y
8r	16ddL	8ff
.	16ee-y	.
8D	16ff	16a-y
.	.	8qa
.	32ff	32a-y
.	32ffJ	32a-yJ
8E-yL	8ee-yL	8gL
8A-y	16ee-y	16g
.	16ff	16a-y
8B-y	8ee-y	8g
8BB-yJ	16ddT	16f
.	32dd	32fT
.	32ee-yJ	32e-yJ
=16	=16	=16
8E-yL	8ee-yL	8e-yL
8EE-yJ	16g	16b-y
.	16a-yJ	16ccJ
8r	16gL	16b-yL
.	16e-y	16g
8BB-y	16f	16a-y
.	16dJ	16fJ
8E-yL	8e-yL	8gL
8EE-yJ	16g	16ee-y
.	16a-yJ	16ffJ
8r	16b-yL	16ggL
.	16g	16ee-y
8BB-y	16a-y	16ff
.	16fJ	16ddJ
!!LO:LB
=17	=17	=17
8E-yL	8gL	8ee-yL
8EE-yJ	16g	16b-y
.	16a-yJ	16ccJ
8r	16gL	16b-yL
.	16e-y	16g
8BB-y	16f	16a-y
.	16dJ	16fJ
4E-y	16e-yL	16gL
.	16f	16a-y
.	16e-y	16g
.	16f	16a-yJ
8r	8g	16b-yL
.	.	16e-y
8D-	16b-y	[8ee-yJ
.	16gJ	.
=18	=18	=18
8CL	16a-yL	16ee-yL]
.	16cc	16ee-y
8D-	16b-y	16dd-
.	16a-yJ	16ccJ
8E-y	4g	16b-yL
.	.	16ff
8EE-yJ	.	16ee-y
.	.	16dd-yJ
4AA-y	16a-yL	16ccL
.	16b-y	16dd-y
.	16a-y	16cc
.	16b-yJ	16dd-yJ
16r	[4cc	[4ee-y
16A-yL	.	.
16G-	.	.
16A-yJ	.	.
!!LO:LB
=19	=19	=19
4F	16ccL]	8ee-yL_
.	16gg-	.
.	16ff	16ee-y]
.	16ee-yJ	16gg-J
8r	16dd-L	16ffL
.	16cc	16ee-y
8FF	16b-y	16dd-
.	16anJ	16ccJ
8B-yL	16b-yL	[4dd-y
.	16ff	.
8A-y	16een	.
.	16ff	.
8G	8b-y	16dd-yL]
.	.	16ggn
8CJ	[8ggnJ	16een
.	.	16b-yJ
=20	=20	=20
8FL	16ggL]	8a-yL
.	16aa-y	.
8G	16ff	8b-yJT
.	16een	.
8A-y	8ff	16ccL
.	.	16f
8AnJ	8ccJ	16ff
.	.	16ee-yJ
4B-y	16b-yL	16dd-L
.	16a-y	16cc
.	16g	16een
.	16a-y	16ff
8r	8g	8b-y
8Bn	8fJ	8a-yJ
=21	=21	=21
8cL	8fLT	8a-yLT
8CJ	8enJ	8gJ
4r	4r	4r
8FL	16fL	16a-yL
.	16g	16b-y
8FFJ	16f	16a-y
.	16g	16b-yJ
8r	8a-y	16ccL
.	.	16f
8BBn	8a-yJ	[8ffJ
=22	=22	=22
4C	16gL	8ffL]
.	16a-y	.
.	16g	16een
.	16a-y	16ffJ
8r	8b-yJ	16ggL
.	.	16ee
8C	4een	16cc
.	.	16b-yJ
8FL	.	8b-yLT
8FFJ	8ff	8a-yJ
16A-yL	4r	4r
16F	.	.
16c	.	.
16CJ	.	.
=23	=23	=23
8FL	16fL	16a-yL
.	16g	16b-y
8FFJ	16f	16a-y
.	16g	16b-yJ
8r	8a-y	16ccL
.	.	16fJ
8BBn	8a-yJ	4ff
8CL	16gL	.
.	16a-y	.
8CCJ	16g	16eenL
.	16a-y	16ffJ
8r	8b-y	16ggL
.	.	16ee
8C	[8eenJ	16cc
.	.	16b-yJ
=24	=24	=24
8FL	8eeL]	8b-yLT
8FFJ	8ffJ	8a-yJ
4r	4r	4r
8B-yL	16dL	16fL
.	16e-y	16g
8BB-yJ	16d	16f
.	16e-yJ	16gJ
8r	16fL	16a-yL
.	16d	16f
8BB-y	[8a-yJ	[8ffJ
=25	=25	=25
8E-yL	16a-yL]	16ffL]
.	16f	16dd
8EE-yJ	8gJ	8ee-yJ
16GL	4r	4r
16E-y	.	.
16B-y	.	.
16BB-yJ	.	.
8E-yL	16e-yL	16gL
.	16f	16a-y
8EE-yJ	16e-y	16g
.	16f	16a-yJ
8r	8g	16b-yL
.	.	16e-y
8E-y	8gJ	[8ee-yJ
=26	=26	=26
8B-yL	16fL	8ee-yL]
.	16g	.
8BB-yJ	16f	16dd
.	16g	16ee-yJ
8r	8a-yJ	16ffL
.	.	16dd
8BB-y	4dd	16b-y
.	.	16a-yJ
8E-yL	.	8a-yL
8EE-yJ	8ee-y	8gJ
8r	8r	[4b-y
16GL	8dd-	.
16E-yJ	.	.
!!LO:LB
=27	=27	=27
8A-yL	[4cc	16b-yL]
.	.	32cc
.	.	32b-yJ
8En	.	32a-yL
.	.	32b-y
.	.	32g
.	.	32gJ
8F	16ccL]	[4a-y
.	16ee-y	.
8A-yJ	16ff	.
.	16ccJ	.
8B-yL	8ddL	16a-yL]
.	.	32b-y
.	.	32a-yJ
8D	[8ffJ	32gL
.	.	32a-y
.	.	16fJ
8E-	16ffL]	16gL
.	16ff	16a-y
8GJ	16ee-y	[8b-yJ
.	16ddJ	.
=28	=28	=28
8A-yL	[4cc	16b-yL]
.	.	32cc
.	.	32b-yJ
8En	.	32a-yL
.	.	32b-y
.	.	16gJ
8F	16ccL]	[4a-y
.	16cc	.
8FFJ	16dd	.
.	16eenJ	.
8FL	[4ff	16a-yL]
.	.	16g
8E-	.	16a-y
.	.	16b-y
8D-	16ffL]	[8bn
.	16aa-y	.
8d-J	16gg	16b_
.	16ffJ	16ccJ
!!LO:LB
=29	=29	=29
8cL	16eenL	8ccL
.	16gg	.
8En	16cc	[8ggJ
.	16b-y	.
8F	8a-y	16ggL]
.	.	16cc
8FFJ	8anJ	16ff
.	.	16ee-yJ
8BB-yL	8b-yL	16ddL
.	.	16ff
8D	[8ffJ	16b-y
.	.	16a-y
8E-	16ffL]	8g
.	16b-y	.
8GGJ	16ee-	[8b-yJ
.	16dd-J	.
=30	=30	=30
4AA-y	[8ccL	16b-yL]
.	.	16e-y
.	16cc]	16a-y
.	16b-yJ	16g
8r	16a-yL	8f
.	16g	.
8A-y	16f	[8ccJ
.	16e-yJ	.
8B-yL	16dL	16ccL]
.	16f	16b-y
8D	[8b-yJ	16a-y
.	.	16gJ
8E-y	16b-yL]	16b-yL
.	16b-y	16gg
8AA-yJ	16a-y	16ff
.	16gJ	16ee-yJ
=31	=31	=31
4BB-y	16fL	16ddL
.	16ee-y	16cc
.	16dd	16b-y
.	16ccJ	16a-yJ
8r	16b-yL	16gL
.	16a-y	16f
8BB-y	16g	16e-y
.	16fJ	16dJ
16E-yL	16gL	16e-yL
16F	16d	16cc
16G	16e-y	16b-y
16A-y	16f	16ee-y
8B-y	8e-y	8g
8BB-yJ	[16d	[16f
.	32d]	32f]
.	32e-yJ	32e-yJ
!!LO:LB
=32	=32	=32
!	!	!LO:TX:a:i:t=Vivace
4E-y	8e-yL	4e-y
.	8e-y	.
8r	8e-yJ	8r
=33	=33	=33
4A-y	8ccL	8r
.	8cc	4r
8r	8ccJ	.
=34	=34	=34
4B-y	8dL	8r
.	8d	4r
8A-y	8dJ	.
=35	=35	=35
4G	8e-yL	8r
.	16g	4r
.	16f	.
8E-y	8gJ	.
=36	=36	=36
4An	16cL	8r
.	16g	.
.	16f	4r
.	16e-y	.
8F	16d	.
.	16cJ	.
=37	=37	=37
4B-y	8dL	8b-yL
.	8f	8b-y
8D	8b-yJ	8b-yJ
!!LO:LB
=38	=38	=38
4E-y	8e-yL	8ggL
.	8g	8gg
8E-y	8b-yJ	8ggJ
=39	=39	=39
4F	8cL	8anL
.	8f	8a
8FF	8anJ	8aJ
=40	=40	=40
4BB-y	8dL	8b-yL
.	16f	16dd
.	16e-y	16cc
8B-y	[8fJ	8ddJ
=41	=41	=41
4c	8f]	16gL
.	.	16dd-
.	4en	16cc
.	.	16b-y
8C	.	16a-y
.	.	16gJ
=42	=42	=42
4F	16fL	8a-yL
.	16g	.
.	16a-y	16cc
.	16g	16b-y
8A-y	16f	8ccJ
.	16e-yJ	.
=43	=43	=43
4B-y	4d	16fL
.	.	16cc
.	.	16b-y
.	.	16a-y
8D	8b-y	16g
.	.	16fJ
=44	=44	=44
8E-yL	8e-yL	8gL
8E-y	8f	8a-y
8E-yJ	8gJ	8b-yJ
=45	=45	=45
8CL	16a-yL	16ccL
.	16b-y	16dd
8C	16cc	16ee-y
.	16b-y	16dd
8CJ	16a-y	16cc
.	16gJ	16b-yJ
!!LO:LB
=46	=46	=46
8DL	16fL	16a-yL
.	16e-y	16g
8D	16d	16f
.	16c	16e-y
8DJ	16B-y	16d
.	16A-yJ	16cJ
=47	=47	=47
8E-yL	8GL	8B-yL
16G	8e-y	8b-y
16F	.	.
8GJ	[8b-yJ	[8e-yJ
=48	=48	=48
8CL	8b-y]	16e-yL]
.	.	16g
8F	4an	16f
.	.	16e-y
8FFJ	.	16d
.	.	16cJ
=49	=49	=49
4BB-y	8b-yL	16dL
.	.	16b-y
.	8dd	16f
.	.	16b-y
8r	8ffJ	16d
.	.	16b-yJ
=50	=50	=50
4FF	8anL	16cL
.	.	16an
.	8cc	16e-y
.	.	16a
8r	8ffJ	16c
.	.	16aJ
=51	=51	=51
4BB-y	8b-yL	16dL
.	.	16b-y
.	8dd	16f
.	.	16b-y
8r	8ffJ	16d
.	.	16b-yJ
!!LO:LB
=52	=52	=52
4FF	8anL	16cL
.	.	16an
.	8cc	16e-y
.	.	16a
8r	8ffJ	16c
.	.	16aJ
=53	=53	=53
4BB-y	8b-yL	16dL
.	.	16b-y
.	8dd	16f
.	.	16b-y
8r	8ffJ	16d
.	.	16b-yJ
=54	=54	=54
4C	8gL	16enL
.	.	16b-y
.	8cc	16g
.	.	16b-y
8r	8gJ	16e
.	.	16b-yJ
=55	=55	=55
4F	16fL	8a-yL
.	16cc	.
.	16a-y	8ff
.	16cc	.
8r	16f	8aa-yJ
.	16ccJ	.
=56	=56	=56
4C	16enL	8b-yL
.	16cc	.
.	16g	8een
.	16cc	.
8r	16e	8ggJ
.	16ccJ	.
=57	=57	=57
4F	16fL	8a-yL
.	16cc	.
.	16a-y	8ff
.	16cc	.
8r	16f	8aa-yJ
.	16ccJ	.
=58	=58	=58
4C	16enL	8b-yL
.	16cc	.
.	16g	8een
.	16cc	.
8r	16e	8ggJ
.	16ccJ	.
=59	=59	=59
4F	16fL	8a-yL
.	16cc	.
.	16a-y	8cc
.	16cc	.
8r	16f	8aa-yJ
.	16ccJ	.
=60	=60	=60
4BB-y	16dL	8a-yL
.	16b-y	.
.	16f	8dd
.	16b-y	.
8r	16d	8ffJ
.	16b-yJ	.
=61	=61	=61
4E-y	16e-yL	8gL
.	16b-y	.
.	16g	8b-y
.	16b-y	.
8r	16e-y	8ggJ
.	16gJ	.
=62	=62	=62
4BB-y	16fL	8ddL
.	16b-y	.
.	16a-y	8ff
.	16b-y	.
8r	16f	8ddJ
.	16b-yJ	.
=63	=63	=63
4E-y	16e-yL	8ggL
.	16b-y	.
.	16g	8b-y
.	16b-y	.
8r	16e-y	8ggJ
.	16gJ	.
!!LO:LB
=64	=64	=64
4BB-y	16fL	8ddL
.	16b-y	.
.	16a-y	8ff
.	16b-y	.
8r	16f	8a-yJ
.	16b-yJ	.
=65	=65	=65
4E-y	16e-yL	8gL
.	16b-y	.
.	16g	8b-y
.	16b-y	.
8r	16e-y	8gJ
.	16gJ	.
=66	=66	=66
4C	16gL	8eenL
.	16cc	.
.	16b-y	8gg
.	16cc	.
8r	16g	8eeJ
.	16ccJ	.
=67	=67	=67
4F	16fL	8a-yL
.	16cc	.
.	16a-y	8cc
.	16cc	.
8r	16f	8a-yJ
.	16ccJ	.
=68	=68	=68
4C	16enL	8gL
.	16cc	.
.	16g	8een
.	16cc	.
8r	16e	8gJ
.	16ccJ	.
=69	=69	=69
4F	16fL	8a-yL
.	16cc	.
.	16a-y	8cc
.	16cc	.
8r	16f	8a-yJ
.	16ccJ	.
!!LO:LB
=70	=70	=70
4BB-y	16dL	8fL
.	16b-y	.
.	16a-y	8b-y
.	16b-y	.
8r	16f	8ddJ
.	16b-yJ	.
=71	=71	=71
4EE-y	4g	8ee-yL
.	.	8b-y
16GL	[8g	[8ee-yJ
16E-yJ	.	.
=72	=72	=72
4B-y	8gL]	8ee-yL]
.	16f	16dd
.	16g	16ee-y
8BB-y	16a-y	16ff
.	16fJ	16ddJ
=73	=73	=73
4E-y	4g	8ee-yL
.	.	8b-y
16GL	[8g	[8ee-yJ
16E-yJ	.	.
=74	=74	=74
4B-y	8gL]	8ee-yL]
.	16f	16dd
.	16g	16ee-y
8BB-y	16a-y	16ff
.	16fJ	16ddJ
=75	=75	=75
4E-y	8gL	8ee-yL
.	8b-y	8g
16E-yL	[8e-yJ	[8ccJ
16CJ	.	.
=76	=76	=76
4G	8e-yL]	8ccL]
.	16d	16bn
.	16e-y	16cc
8GG	16f	16dd
.	16dJ	16bJ
=77	=77	=77
4C	4e-y	8ccL
.	.	8g
16E-yL	[8e-y	[8ccJ
16CJ	.	.
!!LO:LB
=78	=78	=78
4G	8e-yL]	8ccL]
.	16d	16bn
.	16e-y	16cc
8GG	16f	16dd
.	16dJ	16bJ
=79	=79	=79
4C	8e-yL	8ccL
.	8g	8e-y
16CL	[8cJ	[8a-yJ
16AA-yJ	.	.
=80	=80	=80
4E-y	8cL]	8a-yL]
.	16B-y	16g
.	16c	16a-y
8EE-y	16d-	16b-y
.	16B-yJ	16gJ
=81	=81	=81
4AA-y	4c	8a-yL
.	.	8e-y
16CL	[8c	[8a-yJ
16AA-yJ	.	.
=82	=82	=82
4E-y	8cL]	8a-yL]
.	16B-y	16g
.	16c	16a-y
8EE-y	16d-	16b-y
.	16B-yJ	16gJ
=83	=83	=83
4AA-y	4c	8a-yL
.	.	8e-y
8r	[8a-y	[8ccJ
=84	=84	=84
4D	8a-yL]	8ccL]
.	8g	8b-y
8r	8fJ	8a-yJ
=85	=85	=85
4E-y	4e-y	8gL
.	.	8b-y
8r	8g	8ee-yJ
=86	=86	=86
4D	8a-yL	8ccL
.	8g	8b-y
8r	8fJ	8a-yJ
=87	=87	=87
4E-y	8e-yL	8gL
.	8g	8b-y
8r	[8ee-yJ	[8ggJ
=88	=88	=88
4AAn	8ee-yL]	8ggL]
.	8dd	8ff
8r	8ccJ	8ee-yJ
=89	=89	=89
4BB-y	8b-yL	8ddL
.	8dd	8b-y
8r	[8ee-yJ	[8ggJ
=90	=90	=90
4AAn	8ee-yL]	8ggL]
.	8dd	8ff
8r	8ccJ	8ee-yJ
=91	=91	=91
8BB-yL	16b-yL	8ddL
.	16cc	.
8C	16b-y	8ee-y
.	16a-y	.
8DJ	16g	[8ffJ
.	16fJ	.
=92	=92	=92
8E-yL	8gL	8ffL]
8F	8a-y	16ee-y
.	.	16dd
8GJ	8b-yJ	8ee-yJ
=93	=93	=93
4A-y	8a-yL	8ccL
.	8g	8b-y
8r	[8fJ	[8a-yJ
=94	=94	=94
4B-y	8fL]	8a-yL]
.	8e-y	8g
8r	8dJ	8fJ
=95	=95	=95
4E-y	[4e-y	8gL
.	.	8b-y
8G	8e-y_	8ee-yJ
!!LO:LB
=96	=96	=96
8cL	4e-y]	16e-yL
.	.	16a-y
8B-y	.	8g
8BB-yJ	8d	16f
.	.	16e-yJ
=97	=97	=97
4E-y	8e-yL	4e-y
.	8e-y	.
8r	8e-yJ	8r
=98	=98	=98
8r	8ccL	8a-yL
4r	8cc	8a-y
.	8ccJ	8a-yJ
=99	=99	=99
8BB-yL	8dL	8ffL
8BB-y	8d	8ff
8BB-yJ	8dJ	8ffJ
=100	=100	=100
8GL	8e-yL	8gL
8G	8f	8a-y
8GJ	[8gJ	[8b-yJ
=101	=101	=101
8CL	8gL]	8b-yL]
8C	16a-y	16cc
.	16g	16b-y
8CJ	16f	16a-y
.	16enJ	16gJ
=102	=102	=102
8FL	8fL	8a-yL
8B-y	16g	8f
.	16f	.
8BB-yJ	16e-y	8gJ
.	16dJ	.
=103	=103	=103
4E-y	8e-yL	8gL
.	8f	8a-y
8D-	[8gJ	[8b-yJ
=104	=104	=104
4C	8gL]	8b-yL]
.	16a-y	16cc
.	16g	16b-y
8r	16f	16a-y
.	16enJ	16gJ
!!LO:LB
=105	=105	=105
4F	8fL	8a-yL
.	8d	8f
8r	8e-yJ	8gJ
=106	=106	=106
4B-y	8fL	8a-yL
.	16g	16b-y
.	16f	16a-y
8BB-y	16e-y	16g
.	16dJ	16fJ
=107	=107	=107
4E-y	16e-yL	16gL
.	16b-y	16ee-y
.	16g	16b-y
.	16b-y	16ee-y
8r	16e-y	16g
.	16b-yJ	16ee-yJ
=108	=108	=108
4C	16e-yL	16a-yL
.	16cc	16ee-y
.	16a-y	16cc
.	16cc	16ee-y
8r	16e-y	16a-y
.	16b-yJ	16ee-yJ
=109	=109	=109
4E-y	16e-yL	16gL
.	16b-y	16ee-y
.	16g	16b-y
.	16b-y	16ee-y
8r	16e-y	16g
.	16b-yJ	16ee-yJ
=110	=110	=110
4C	16e-yL	16a-yL
.	16cc	16ee-y
.	16a-y	16cc
.	16cc	16ee-y
8r	16e-y	16a-y
.	16ccJ	16ee-yJ
=111	=111	=111
4F	16fL	16anL
.	16cc	16ff
.	16an	16cc
.	16cc	16ff
8r	16f	16a
.	16ccJ	16ffJ
!!LO:LB
=112	=112	=112
4D	16fL	16b-yL
.	16dd	16ff
.	16b-y	16dd
.	16dd	16ff
8r	16f	16b-y
.	16ddJ	16ffJ
=113	=113	=113
4F	16fL	16anL
.	16cc	16ff
.	16an	16cc
.	16cc	16ff
8r	16f	16a
.	16ccJ	16ffJ
=114	=114	=114
4D	16fL	16b-yL
.	16dd	16ff
.	16b-y	16dd
.	16dd	16ff
8r	16f	16b-y
.	16ddJ	16ffJ
=115	=115	=115
4G	16gL	16bnL
.	16dd	16gg
.	16bn	16dd
.	16dd	16gg
8r	16g	16b
.	16ddJ	16ggJ
=116	=116	=116
4E-y	16gL	16ccL
.	16ee-y	16gg
.	16cc	16ee-y
.	16ee-y	16gg
8r	16g	16cc
.	16ee-yJ	16ggJ
=117	=117	=117
4G	16gL	16bnL
.	16dd	16gg
.	16bn	16dd
.	16dd	16gg
8r	16g	16b
.	16ddJ	16ggJ
=118	=118	=118
4E-y	16gL	16ccL
.	16ee-y	16gg
.	16cc	16ee-y
.	16ee-y	16gg
8r	16g	16cc
.	16ee-yJ	16ggJ
=119	=119	=119
4F	16anL	16ccL
.	16ee-y	16ff
.	16cc	16ee-y
.	16ee-y	16ff
8r	16a	16cc
.	16ccJ	16ffJ
=120	=120	=120
4D	16fL	16b-yL
.	16dd	16ff
.	16b-y	16dd
.	16dd	16ff
8r	16f	16b-y
.	16ddJ	16ffJ
=121	=121	=121
4BB-y	16fL	16a-yL
.	16dd	16ff
.	16a-y	16dd
.	16dd	16ff
8r	16f	16a-y
.	16ddJ	16ffJ
=122	=122	=122
4E-y	16e-yL	16gL
.	16b-y	16ee-y
.	16g	16b-y
.	16b-y	16ee-y
8r	16e-y	16g
.	16b-yJ	16ee-yJ
=123	=123	=123
4B-y	16fL	16a-yL
.	16dd	16ff
.	16a-y	16dd
.	16dd	16ff
8r	16f	16a-y
.	16ddJ	16ffJ
!!LO:LB
=124	=124	=124
4E-y	16e-yL	16gL
.	16b-y	16ee-y
.	16g	16b-y
.	16b-y	16ee-y
8r	16e-y	16g
.	16b-yJ	16ee-yJ
=125	=125	=125
4A-y	16e-yL	16a-yL
.	16cc	16ee-y
.	16a-y	16cc
.	16cc	16ee-y
8r	16e-y	16a-y
.	16ccJ	16ee-yJ
=126	=126	=126
4B-y	16fL	16a-yL
.	16b-y	16dd
.	16a-y	16b-y
.	16b-y	16dd
8r	16f	16a-y
.	16b-yJ	16ddJ
=127	=127	=127
4E-y	4g	8ee-yL
.	.	8b-y
16GL	[8g	[8ee-yJ
16E-yJ	.	.
=128	=128	=128
4B-y	8gL]	8ee-yL]
.	16f	16dd
.	16g	16ee-y
8BB-y	16a-y	16ff
.	16fJ	16ddJ
=129	=129	=129
4E-y	4g	8ee-yL
.	.	8b-y
16GL	[8g	[8ee-yJ
16E-yJ	.	.
=130	=130	=130
4B-y	8gL]	8ee-yL]
.	16f	16dd
.	16g	16ee-y
8BB-y	16a-y	16ff
.	16fJ	16ddJ
=131	=131	=131
8E-y	8g	8ee-y
4r	4r	4r
!!LO:LB
=132	=132	=132
8c	8ee-y	8g
4r	4r	4r
=133	=133	=133
8A-y	8cc	8f
4r	4r	4r
=134	=134	=134
8B-y	8f	8dd
4r	4r	4r
=135	=135	=135
4.E-y;	4.g;	4.ee-y;
=	=	=
*-	*-	*-
